X:7
T:Bourree des jeunes
Z:Jack Campin, 2014
F:http://www.campin.me.uk/Music/YoupNannetteD.abc
S:p17, p1000206.jpg
M:3/8
L:1/16
Q:1/4=120
K:G
D2|B2A2G2|F4  AB|c2AcAc|B2G2\
D2|B2A2G2|F4  AB|c2AcAF|G4:|
D2|B2BdBG|B2BdBG|A2AcBA|B2G2\
D2|B2BdBG|B2BdBG|A2AcBA|G4:|

